apps/cde-ui/src/assets/logo/x.svg

<svg width="48" height="48" viewBox="0 0 48 48" fill="none" xmlns="http://www.w3.org/2000/svg">
<rect width="48" height="48" rx="24" fill="#E00D3A"/>
<path fill-rule="evenodd" clip-rule="evenodd" d="M12.018 36H14.1097L22.296 26.6892L28.8054 36H36L26.299 22.1925L35.2066 12H33.0789L25.3434 20.817L19.1405 12H12L21.3764 25.3666L12.018 36ZM14.885 13.5694H18.1127L33.0969 34.5187H29.8332L14.885 13.5694Z" fill="white"/>
</svg>

<svg width="48" height="48" fill="none" xmlns="http://www.w3.org/2000/svg">
  <rect width="48" height="48" rx="24" fill="currentColor"/>
  <path fill-rule="evenodd" clip-rule="evenodd" d="M12.018 36h2.092l8.186-9.31 6.51 9.31H36l-9.701-13.808L35.207 12h-2.128l-7.736 8.817L19.14 12H12l9.376 13.367L12.018 36Zm2.867-22.43h3.228l14.984 20.949h-3.264l-14.948-20.95Z" fill="#fff"/>
</svg>
